X: 6
T: Toss The Feathers
R: reel
M: 4/4
L: 1/8
K: Dmix
D2 (3FED AD (3FED|ABcA GE~E2|D2 (3FED ADFA|dfed cAGE|D2 (3FED AD (3FED|ABcA GE~E2|cABG A2B^c|dfed cAGE:||:Ad~d2 Ad~d2|Ad^cd edcd|eaag ~a3g|eaag ed^cd|efge afge|dfed cAAB|cABG A2B^c|dfed cAGE:|


Tune 138	Setting 12754

